dist/img/clients/client_2.svg

<svg width="115" height="56" viewBox="0 0 115 56" fill="none" xmlns="http://www.w3.org/2000/svg">
<path d="M35.9683 36.2551H43.1179V38.5701H39.7167V54.8366H35.9683V36.2551Z" fill="#1D1D1D"/>
<path d="M47.3565 47.8609L47.9989 38.5701H48.2141L48.8565 47.8609H47.3565ZM43.2053 54.8366H46.8754L47.2228 49.9018H48.9902L49.3391 54.8366H53.0076L51.0527 36.2551H45.1603L43.2053 54.8366Z" fill="#1D1D1D"/>
<path d="M58.376 48.333V51.8361C58.376 52.3083 58.7449 52.4453 58.96 52.4453C59.3135 52.4453 59.5594 52.156 59.5594 51.8361V47.5106C59.5594 46.9318 59.4518 46.2921 58.0532 46.2921H56.5317V44.2512H58.1147C59.1752 44.2512 59.5594 44.0075 59.5594 42.8652V39.1794C59.5594 38.8595 59.3135 38.5701 58.96 38.5701C58.7449 38.5701 58.376 38.692 58.376 39.1794V42.2103H54.626V39.5754C54.626 38.2808 54.7797 36.2551 57.4077 36.2551H60.5123C63.1404 36.2551 63.3094 38.2808 63.3094 39.5754V42.5454C63.3094 44.571 61.8801 45.1193 60.7582 45.0737V45.2564C63.2787 45.1955 63.3094 47.1146 63.3094 47.7695V51.5163C63.3094 52.8261 63.1404 54.8366 60.5123 54.8366H57.4077C54.7797 54.8366 54.626 52.8261 54.626 51.5163V48.333H58.376Z" fill="#1D1D1D"/>
<path d="M65.7686 36.2551H74.452V54.8366H70.702V38.5701H69.5186V54.8366H65.7686V36.2551Z" fill="#1D1D1D"/>
<path d="M80.6612 46.4749V38.5701H81.153C81.5525 38.5701 81.8446 38.9052 81.8446 39.4992V45.5458C81.8446 46.1398 81.5525 46.4749 81.153 46.4749H80.6612ZM76.9111 54.8366H80.6612V48.5158H82.8128C85.4255 48.5158 85.5946 46.5054 85.5946 45.1955V39.5754C85.5946 38.2808 85.4255 36.2551 82.8128 36.2551H76.9111V54.8366Z" fill="#1D1D1D"/>
<path d="M92.9869 51.8361C92.9869 52.156 92.741 52.4453 92.3875 52.4453C92.1723 52.4453 91.8035 52.3083 91.8035 51.8361V39.1794C91.8035 38.692 92.1723 38.5701 92.3875 38.5701C92.741 38.5701 92.9869 38.8595 92.9869 39.1794V51.8361ZM88.0535 51.5163C88.0535 52.8261 88.2225 54.8366 90.8352 54.8366H93.9551C96.5679 54.8366 96.7369 52.8261 96.7369 51.5163V39.5754C96.7369 38.2808 96.5679 36.2551 93.9551 36.2551H90.8352C88.2225 36.2551 88.0535 38.2808 88.0535 39.5754V51.5163Z" fill="#1D1D1D"/>
<path d="M108.94 36.2551H113.827V54.8366H110.077V43.1851H109.939L108.002 54.8366H105.006L103.084 43.1851H102.946V54.8366H99.196V36.2551H104.068L106.512 49.323L108.94 36.2551Z" fill="#1D1D1D"/>
<path d="M31.1085 10.8502C29.9604 5.86974 27.0834 1.81837 26.6868 1.16345C26.0598 2.09253 23.7652 5.67174 22.5987 9.63174C21.3246 14.0639 21.1371 17.9934 21.5767 21.8468C22.0131 25.7154 23.6622 29.6906 23.6622 29.6906C24.5383 31.762 25.8508 34.0009 26.7053 35.0975C27.9578 33.4831 30.8365 28.6702 31.734 22.3951C32.2335 18.892 32.255 15.8306 31.1085 10.8502ZM26.6868 33.8486C26.1228 32.7977 25.2468 30.8025 25.1638 27.6954C25.1423 24.7102 26.3518 22.1362 26.7053 21.6031C27.0203 22.1362 28.0624 24.3751 28.1869 27.4365C28.2714 30.4217 27.2693 32.7824 26.6868 33.8486ZM30.775 19.3032C30.732 21.2071 30.5029 23.2175 30.2109 24.4208C30.3154 22.3494 30.0649 19.4403 29.5854 17.1557C29.1059 14.8863 27.7488 11.0787 26.6653 9.32712C25.6648 11.0025 24.4322 14.2923 23.7867 17.1405C23.1382 19.9886 23.1197 23.446 23.1197 24.4817C22.9476 23.6135 22.5172 20.4912 22.6387 17.3689C22.7401 14.795 23.3487 12.1296 23.6822 10.9111C24.9548 6.84452 26.3948 4.24006 26.6653 3.82882C26.9358 4.24006 28.7494 7.45374 29.6899 10.8197C30.6259 14.1857 30.8149 17.4146 30.775 19.3032Z" fill="#1D1D1D"/>
<path d="M28.6341 36.2551H19.9061V42.058C19.9138 42.058 19.9199 42.0428 19.9276 42.0428C21.984 40.0018 25.319 40.0018 27.3769 42.0428C29.4333 44.0684 29.4333 47.3735 27.3769 49.4144C27.3677 49.4297 27.3585 49.4296 27.3493 49.4449C27.3385 49.4449 27.3277 49.4601 27.3185 49.4753C25.2668 51.4858 22.5864 52.491 19.9061 52.491C17.2134 52.491 14.5208 51.4858 12.4675 49.4449C8.84657 45.8657 8.41778 40.3064 11.178 36.2551C11.55 35.7068 11.9788 35.1889 12.4675 34.7015C14.5208 32.6606 17.2134 31.6554 19.9061 31.6554V17.704C9.5597 17.704 1.17285 26.0048 1.17285 36.2551C1.17285 46.5053 9.5597 54.8213 19.9061 54.8213C25.3006 54.8213 30.1602 52.5519 33.5783 48.9423V36.2551H28.6341Z" fill="#1D1D1D"/>
</svg>

<svg width="115" height="56" viewBox="0 0 115 56" fill="none" xmlns="http://www.w3.org/2000/svg"><path d="M35.968 36.255h7.15v2.315h-3.401v16.267h-3.749V36.255zM47.356 47.86L48 38.57h.215l.642 9.29h-1.5zm-4.15 6.977h3.67l.347-4.935h1.767l.35 4.935h3.668l-1.955-18.582H45.16l-1.955 18.582zm15.17-6.504v3.503c0 .472.369.61.584.61a.6.6 0 00.6-.61v-4.325c0-.58-.108-1.219-1.507-1.219h-1.521v-2.04h1.583c1.06 0 1.444-.245 1.444-1.387V39.18a.6.6 0 00-.599-.609c-.215 0-.584.122-.584.61v3.03h-3.75v-2.635c0-1.294.154-3.32 2.782-3.32h3.104c2.628 0 2.797 2.026 2.797 3.32v2.97c0 2.026-1.429 2.574-2.55 2.529v.182c2.52-.06 2.55 1.859 2.55 2.514v3.746c0 1.31-.169 3.32-2.797 3.32h-3.104c-2.628 0-2.782-2.01-2.782-3.32v-3.183h3.75zm7.393-12.078h8.683v18.582h-3.75V38.57h-1.183v16.267h-3.75V36.255zm14.892 10.22V38.57h.492c.4 0 .692.335.692.93v6.046c0 .594-.293.929-.692.929h-.492zm-3.75 8.362h3.75v-6.321h2.152c2.612 0 2.782-2.01 2.782-3.32v-5.62c0-1.295-.17-3.32-2.782-3.32H76.91v18.58zm16.076-3.001a.6.6 0 01-.6.61c-.215 0-.584-.138-.584-.61V39.18c0-.487.37-.609.585-.609a.6.6 0 01.599.61v12.656zm-4.933-.32c0 1.31.168 3.32 2.781 3.32h3.12c2.613 0 2.782-2.01 2.782-3.32v-11.94c0-1.295-.17-3.32-2.782-3.32h-3.12c-2.612 0-2.781 2.025-2.781 3.32v11.94zm20.886-15.261h4.887v18.582h-3.75V43.185h-.138l-1.937 11.652h-2.996l-1.922-11.652h-.138v11.652h-3.75V36.255h4.872l2.444 13.068 2.428-13.068zM31.108 10.85c-1.148-4.98-4.025-9.032-4.421-9.687-.627.93-2.922 4.509-4.088 8.469-1.274 4.432-1.462 8.361-1.022 12.215.436 3.868 2.085 7.844 2.085 7.844.876 2.071 2.189 4.31 3.043 5.406 1.253-1.614 4.132-6.427 5.029-12.702.5-3.503.521-6.564-.626-11.545zm-4.42 23c-.564-1.051-1.44-3.046-1.523-6.154-.022-2.985 1.188-5.559 1.541-6.092.315.533 1.357 2.772 1.482 5.833.084 2.986-.918 5.346-1.5 6.413zm4.088-14.546c-.043 1.904-.272 3.915-.564 5.118.104-2.072-.146-4.98-.626-7.265-.48-2.27-1.836-6.077-2.92-7.829-1 1.675-2.233 4.965-2.878 7.813-.649 2.849-.667 6.306-.667 7.342-.172-.869-.603-3.99-.481-7.113.101-2.574.71-5.24 1.043-6.458 1.273-4.066 2.713-6.67 2.983-7.082.27.411 2.084 3.625 3.025 6.99.936 3.367 1.125 6.596 1.085 8.484z" fill="#1D1D1D"/><path d="M28.634 36.255h-8.728v5.803c.008 0 .014-.015.022-.015a5.297 5.297 0 017.449 0 5.175 5.175 0 010 7.371c-.01.016-.018.016-.028.03-.01 0-.021.016-.03.031a10.56 10.56 0 01-7.413 3.016c-2.693 0-5.385-1.005-7.438-3.046a10.351 10.351 0 01-1.29-13.19c.372-.548.8-1.066 1.29-1.553 2.053-2.041 4.745-3.047 7.438-3.047V17.704c-10.346 0-18.733 8.3-18.733 18.551 0 10.25 8.387 18.566 18.733 18.566 5.395 0 10.254-2.27 13.672-5.879V36.255h-4.944z" fill="#1D1D1D"/></svg>
